build/img/icon/viber.svg

<svg width="46" height="46" viewBox="0 0 46 46" fill="none" xmlns="http://www.w3.org/2000/svg">
<circle cx="23" cy="23" r="23" fill="#7B519D"/>
<path d="M29.5548 21.751C29.579 18.9893 27.1635 16.4575 24.1704 16.1074C24.1109 16.1005 24.046 16.0901 23.9774 16.079C23.8292 16.0551 23.6759 16.0305 23.5213 16.0305C22.9079 16.0305 22.7439 16.4501 22.7007 16.7004C22.6587 16.9437 22.6988 17.1481 22.8195 17.308C23.0227 17.577 23.3801 17.6248 23.6672 17.663C23.7514 17.6744 23.8308 17.6849 23.8973 17.6994C26.5865 18.2846 27.492 19.2046 27.9345 21.801C27.9453 21.8645 27.9502 21.9427 27.9554 22.0256C27.9747 22.3359 28.0149 22.9817 28.7279 22.9817H28.7279C28.7873 22.9817 28.851 22.9767 28.9174 22.9668C29.5813 22.8686 29.5605 22.2783 29.5505 21.9947C29.5477 21.9149 29.545 21.8393 29.552 21.7891C29.5538 21.7764 29.5548 21.7637 29.5548 21.751Z" fill="white"/>
<path d="M23.347 15.0942C23.4267 15.0998 23.5021 15.1051 23.5648 15.1145C27.9808 15.7758 30.0117 17.8132 30.5745 22.1471C30.584 22.2208 30.5855 22.3106 30.5871 22.4058C30.5927 22.7444 30.6043 23.4488 31.3811 23.4634L31.4052 23.4636C31.6488 23.4636 31.8426 23.3921 31.9812 23.2508C32.2231 23.0045 32.2062 22.6386 32.1926 22.3445C32.1893 22.2724 32.1861 22.2044 32.1869 22.1449C32.243 17.7125 28.303 13.6932 23.7554 13.5437C23.7365 13.5431 23.7185 13.5441 23.7003 13.5466C23.6914 13.5479 23.6749 13.5494 23.6465 13.5494C23.6011 13.5494 23.5454 13.5456 23.4862 13.5417C23.4147 13.537 23.3336 13.5315 23.2514 13.5315C22.5271 13.5315 22.3895 14.0328 22.3718 14.3316C22.3312 15.0222 23.0173 15.0708 23.347 15.0942Z" fill="white"/>
<path d="M30.3617 27.7489C30.2678 27.679 30.1708 27.6068 30.0799 27.5355C29.5977 27.1576 29.0848 26.8094 28.5887 26.4725C28.4858 26.4027 28.3828 26.3328 28.2802 26.2627C27.6448 25.8281 27.0735 25.6168 26.5337 25.6168C25.8068 25.6168 25.1729 26.008 24.6498 26.7793C24.4181 27.1213 24.1369 27.2875 23.7904 27.2875C23.5855 27.2875 23.3526 27.2306 23.0984 27.1182C21.0473 26.2125 19.5827 24.8238 18.7452 22.9907C18.3403 22.1047 18.4716 21.5256 19.1841 21.0542C19.5887 20.7868 20.3419 20.289 20.2885 19.3356C20.2281 18.2529 17.775 14.9954 16.7414 14.6254C16.3038 14.4687 15.8441 14.4672 15.3724 14.6217C14.1842 15.0107 13.3316 15.6938 12.9064 16.597C12.4955 17.4698 12.5141 18.4946 12.96 19.5607C14.2493 22.6428 16.062 25.3301 18.3478 27.5476C20.5852 29.7184 23.3353 31.4966 26.5214 32.8325C26.8085 32.9528 27.1098 33.0185 27.3297 33.0664C27.4047 33.0828 27.4694 33.0968 27.5166 33.1094C27.5425 33.1162 27.5693 33.12 27.5961 33.1202L27.6212 33.1203C27.6213 33.1203 27.6212 33.1203 27.6214 33.1203C29.1199 33.1203 30.9192 31.7869 31.4718 30.2666C31.956 28.9355 31.072 28.2775 30.3617 27.7489Z" fill="white"/>
<path d="M24.0112 18.615C23.7546 18.6214 23.2207 18.6343 23.0333 19.1638C22.9457 19.4113 22.9562 19.6261 23.0646 19.8024C23.2236 20.0611 23.5284 20.1404 23.8055 20.1839C24.8107 20.3409 25.327 20.8822 25.4303 21.8872C25.4782 22.3558 25.8023 22.683 26.2183 22.683H26.2184C26.2491 22.683 26.2805 22.6812 26.3118 22.6775C26.8122 22.6196 27.0548 22.2616 27.0329 21.6136C27.0409 20.9373 26.6774 20.1695 26.0593 19.5579C25.439 18.9445 24.6913 18.599 24.0112 18.615Z" fill="white"/>
</svg>

<svg width="46" height="46" fill="none" xmlns="http://www.w3.org/2000/svg"><circle cx="23" cy="23" r="23" fill="#7B519D"/><path d="M29.555 21.751c.024-2.762-2.392-5.294-5.385-5.644a4.476 4.476 0 01-.193-.028 2.873 2.873 0 00-.456-.049c-.613 0-.777.42-.82.67-.042.244-.002.448.119.608.203.269.56.317.847.355.084.011.164.022.23.036 2.69.586 3.595 1.506 4.038 4.102.01.064.015.142.02.225.02.31.06.956.773.956.06 0 .123-.005.19-.015.663-.098.643-.689.633-.972-.003-.08-.006-.156.001-.206a.271.271 0 00.003-.038z" fill="#fff"/><path d="M23.347 15.094c.08.006.155.011.218.02 4.416.662 6.447 2.7 7.01 7.033.009.074.01.164.012.259.006.338.017 1.043.794 1.057h.024c.244 0 .438-.07.576-.212.242-.247.225-.612.212-.907a2.872 2.872 0 01-.006-.2c.056-4.431-3.884-8.45-8.432-8.6-.018 0-.037 0-.055.003a.388.388 0 01-.053.002c-.046 0-.102-.003-.16-.007a3.403 3.403 0 00-.236-.01c-.724 0-.861.5-.88.8-.04.69.646.739.976.762zm7.015 12.655c-.094-.07-.191-.142-.282-.213a26.952 26.952 0 00-1.491-1.064l-.309-.21c-.635-.434-1.207-.645-1.746-.645-.727 0-1.361.391-1.884 1.162-.232.342-.513.509-.86.509-.204 0-.437-.057-.692-.17-2.05-.905-3.515-2.294-4.353-4.127-.405-.886-.273-1.465.44-1.937.404-.267 1.157-.765 1.104-1.718-.06-1.083-2.514-4.34-3.548-4.71a2.065 2.065 0 00-1.369-.004c-1.188.389-2.04 1.072-2.466 1.975-.41.873-.392 1.898.054 2.964 1.29 3.082 3.102 5.77 5.388 7.987 2.237 2.17 4.987 3.949 8.173 5.285.287.12.589.186.809.233.075.017.14.03.187.043a.303.303 0 00.08.011h.024c1.499 0 3.298-1.333 3.85-2.853.485-1.331-.399-1.99-1.11-2.518zm-6.351-9.134c-.256.006-.79.02-.978.549-.087.247-.077.462.032.638.159.26.463.338.74.382 1.006.157 1.522.698 1.625 1.703.048.469.372.796.788.796a.742.742 0 00.094-.006c.5-.057.743-.415.72-1.063.009-.677-.355-1.445-.973-2.056-.62-.613-1.368-.959-2.048-.943z" fill="#fff"/></svg>
